X:28
T:Morning Star, The
R:Reel
N:C# in 11
M:4/4
L:1/8
K:G
B2 BA BGEF|G2 Bd ef g2|B2 BA BGEF|GBAF G2 GA:|Bdef g2 eg|f2 df edBA|Bdef
 g2 fg|afdf e3 d|Bdef g2 eg|f2 df edBA|Bdd^c d2 de|fgaf gfed|
